Numix-Light/16/status/indicator-keyboard-Ph-1.svg

<?xml version="1.0" encoding="UTF-8" standalone="no"?>
<svg
   xmlns:dc="http://purl.org/dc/elements/1.1/"
   xmlns:cc="http://creativecommons.org/ns#"
   xmlns:rdf="http://www.w3.org/1999/02/22-rdf-syntax-ns#"
   xmlns:svg="http://www.w3.org/2000/svg"
   xmlns="http://www.w3.org/2000/svg"
   xmlns:sodipodi="http://sodipodi.sourceforge.net/DTD/sodipodi-0.dtd"
   xmlns:inkscape="http://www.inkscape.org/namespaces/inkscape"
   viewBox="0 0 16 16"
   id="svg2"
   version="1.1"
   inkscape:version="0.91 r13725"
   sodipodi:docname="indicator-keyboard-Ph-1.svg">
  <metadata
     id="metadata14">
    <rdf:RDF>
      <cc:Work
         rdf:about="">
        <dc:format>image/svg+xml</dc:format>
        <dc:type
           rdf:resource="http://purl.org/dc/dcmitype/StillImage" />
      </cc:Work>
    </rdf:RDF>
  </metadata>
  <defs
     id="defs12" />
  <sodipodi:namedview
     pagecolor="#ffffff"
     bordercolor="#666666"
     borderopacity="1"
     objecttolerance="10"
     gridtolerance="10"
     guidetolerance="10"
     inkscape:pageopacity="0"
     inkscape:pageshadow="2"
     inkscape:window-width="459"
     inkscape:window-height="369"
     id="namedview10"
     showgrid="false"
     inkscape:zoom="14.75"
     inkscape:cx="8"
     inkscape:cy="8"
     inkscape:window-x="65"
     inkscape:window-y="24"
     inkscape:window-maximized="0"
     inkscape:current-layer="svg2" />
  <path
     style="fill:#353535;fill-opacity:1"
     d="M 1.5996094 0 C 0.71320937 2.9605947e-16 0 0.71320937 0 1.5996094 L 0 14.400391 C 2.9605947e-16 15.286791 0.71320937 16 1.5996094 16 L 14.400391 16 C 15.286791 16 16 15.286791 16 14.400391 L 16 1.5996094 C 16 0.71320937 15.286791 0 14.400391 0 L 1.5996094 0 z M 8.0273438 4.1113281 L 8.0273438 6.578125 C 8.2193438 6.506125 8.4133281 6.4520156 8.6113281 6.4160156 C 8.8093281 6.3740156 9.0070781 6.3535156 9.2050781 6.3535156 C 9.5650781 6.3535156 9.8654684 6.4038594 10.105469 6.5058594 C 10.345469 6.6078594 10.537641 6.7552656 10.681641 6.9472656 C 10.825641 7.1332656 10.924516 7.3570938 10.978516 7.6210938 C 11.038516 7.8850937 11.068359 8.1761406 11.068359 8.4941406 L 11.068359 11.095703 L 10.484375 11.095703 L 10.484375 8.6835938 C 10.484375 8.3535938 10.460109 8.0756562 10.412109 7.8476562 C 10.370109 7.6196563 10.2955 7.4330625 10.1875 7.2890625 C 10.0855 7.1450625 9.9474378 7.0424219 9.7734375 6.9824219 C 9.5994375 6.9164219 9.3792344 6.8847656 9.1152344 6.8847656 C 9.0132344 6.8847656 8.9032031 6.8921562 8.7832031 6.9101562 C 8.6692031 6.9281563 8.5609844 6.9506094 8.4589844 6.9746094 C 8.3569844 6.9926094 8.2636875 7.0131094 8.1796875 7.0371094 C 8.1016875 7.0611094 8.0513438 7.0797969 8.0273438 7.0917969 L 8.0273438 11.095703 L 7.4414062 11.095703 L 7.4414062 4.2207031 L 8.0273438 4.1113281 z M 3.7265625 4.8046875 C 4.6085625 4.8046875 5.2652656 4.9725937 5.6972656 5.3085938 C 6.1292656 5.6445937 6.3457031 6.1222344 6.3457031 6.7402344 C 6.3457031 7.0942344 6.28225 7.3964375 6.15625 7.6484375 C 6.03025 7.8944375 5.8511875 8.0959531 5.6171875 8.2519531 C 5.3831875 8.4019531 5.0939531 8.5139375 4.7519531 8.5859375 C 4.4159531 8.6519375 4.035375 8.6835937 3.609375 8.6835938 L 2.7636719 8.6835938 L 2.7636719 11.095703 L 2.1523438 11.095703 L 2.1523438 4.9765625 C 2.3683437 4.9165625 2.6202031 4.8736094 2.9082031 4.8496094 C 3.2022031 4.8196094 3.4745625 4.8046875 3.7265625 4.8046875 z M 3.7539062 5.3359375 C 3.5259063 5.3359375 3.3299687 5.3452813 3.1679688 5.3632812 C 3.0119688 5.3752812 2.8776719 5.3864375 2.7636719 5.3984375 L 2.7636719 8.1523438 L 3.5371094 8.1523438 C 3.8671094 8.1523438 4.1656875 8.1356094 4.4296875 8.0996094 C 4.6996875 8.0576094 4.9272813 7.9848125 5.1132812 7.8828125 C 5.3052812 7.7748125 5.4526875 7.6274062 5.5546875 7.4414062 C 5.6566875 7.2554063 5.7070313 7.0184687 5.7070312 6.7304688 C 5.7070312 6.4544688 5.6491562 6.226875 5.5351562 6.046875 C 5.4271562 5.866875 5.2817031 5.7250469 5.0957031 5.6230469 C 4.9157031 5.5150469 4.7086094 5.4404375 4.4746094 5.3984375 C 4.2406094 5.3564375 3.9999063 5.3359375 3.7539062 5.3359375 z M 13.580078 8.8417969 L 13.847656 8.8417969 L 13.847656 12.896484 L 13.46875 12.896484 L 13.46875 9.421875 C 13.42585 9.468675 13.369028 9.5157063 13.298828 9.5664062 C 13.232528 9.6171062 13.156112 9.66805 13.070312 9.71875 C 12.984512 9.76555 12.894381 9.812575 12.800781 9.859375 C 12.707181 9.902275 12.613131 9.9375437 12.519531 9.9648438 L 12.408203 9.671875 C 12.642203 9.5899751 12.851856 9.4880812 13.035156 9.3632812 C 13.218456 9.2345813 13.400678 9.0601969 13.580078 8.8417969 z "
     id="path4" />
</svg>

<svg xmlns="http://www.w3.org/2000/svg" viewBox="0 0 16 16">
 <path d="m 1.6 0 c -0.886 0 -1.6 0.713 -1.6 1.6 l 0 12.801 c 0 0.886 0.713 1.6 1.6 1.6 l 12.801 0 c 0.886 0 1.6 -0.713 1.6 -1.6 l 0 -12.801 c 0 -0.886 -0.713 -1.6 -1.6 -1.6 l -12.801 0 z m 6.428 4.111 l 0 2.467 c 0.192 -0.072 0.386 -0.126 0.584 -0.162 c 0.198 -0.042 0.396 -0.063 0.594 -0.063 c 0.36 0 0.66 0.05 0.9 0.152 c 0.24 0.102 0.432 0.249 0.576 0.441 c 0.144 0.186 0.243 0.41 0.297 0.674 c 0.06 0.264 0.09 0.555 0.09 0.873 l 0 2.602 l -0.584 0 l 0 -2.412 c 0 -0.33 -0.024 -0.608 -0.072 -0.836 c -0.042 -0.228 -0.117 -0.415 -0.225 -0.559 c -0.102 -0.144 -0.24 -0.247 -0.414 -0.307 c -0.174 -0.066 -0.394 -0.098 -0.658 -0.098 c -0.102 0 -0.212 0.007 -0.332 0.025 c -0.114 0.018 -0.222 0.04 -0.324 0.064 c -0.102 0.018 -0.195 0.038 -0.279 0.063 c -0.078 0.024 -0.128 0.043 -0.152 0.055 l 0 4 l -0.586 0 l 0 -6.875 l 0.586 -0.109 z m -4.301 0.693 c 0.882 0 1.539 0.168 1.971 0.504 c 0.432 0.336 0.648 0.814 0.648 1.432 c 0 0.354 -0.063 0.656 -0.189 0.908 c -0.126 0.246 -0.305 0.448 -0.539 0.604 c -0.234 0.15 -0.523 0.262 -0.865 0.334 c -0.336 0.066 -0.717 0.098 -1.143 0.098 l -0.846 0 l 0 2.412 l -0.611 0 l 0 -6.119 c 0.216 -0.06 0.468 -0.103 0.756 -0.127 c 0.294 -0.03 0.566 -0.045 0.818 -0.045 z m 0.027 0.531 c -0.228 0 -0.424 0.009 -0.586 0.027 c -0.156 0.012 -0.29 0.023 -0.404 0.035 l 0 2.754 l 0.773 0 c 0.33 0 0.629 -0.017 0.893 -0.053 c 0.27 -0.042 0.498 -0.115 0.684 -0.217 c 0.192 -0.108 0.339 -0.255 0.441 -0.441 c 0.102 -0.186 0.152 -0.423 0.152 -0.711 c 0 -0.276 -0.058 -0.504 -0.172 -0.684 c -0.108 -0.18 -0.253 -0.322 -0.439 -0.424 c -0.18 -0.108 -0.387 -0.183 -0.621 -0.225 c -0.234 -0.042 -0.475 -0.063 -0.721 -0.063 z m 9.826 3.506 l 0.268 0 l 0 4.055 l -0.379 0 l 0 -3.475 c -0.043 0.047 -0.1 0.094 -0.17 0.145 c -0.066 0.051 -0.143 0.102 -0.229 0.152 c -0.086 0.047 -0.176 0.094 -0.27 0.141 c -0.094 0.043 -0.188 0.078 -0.281 0.105 l -0.111 -0.293 c 0.234 -0.082 0.444 -0.184 0.627 -0.309 c 0.183 -0.129 0.366 -0.303 0.545 -0.521 z" style="fill:#353535;fill-opacity:1"/>
</svg>
